X:1
T:Alma Redemptoris Mater
T:Giovanni Legrenzi 1626 - 1690
T:Alma Redemptoris Mater
T:(C) Wim Looyestijn - 2018. May be freely copied for non-commercial use.
T:(C) Wim Looyestijn - 2018. May be freely copied for non-commercial use.
T:(C) Wim Looyestijn - 2018. May be freely copied for non-commercial use.
T:(C) Wim Looyestijn - 2018. May be freely copied for non-commercial use.
T:(C) Wim Looyestijn - 2018. May be freely copied for non-commercial use.
T:(C) Wim Looyestijn - 2018. May be freely copied for non-commercial use.
T:(C) Wim Looyestijn - 2018. May be freely copied for non-commercial use.
C:Giovanni Legrenzi
C:1626 - 1690
Z:(C) Wim Looyestijn - 2018. May be freely copied for non-commercial use.
%%score [ 1 2 ] 3
L:1/8
Q:1/4=60
M:4/4
K:C
V:1 treble nm="Cantus-1" snm="C-1"
V:2 treble nm="Cantus-2" snm="C-2"
V:3 bass nm="Organ" snm="Org."
V:1
 A2 D2 de f^c | dc _BA B>A G2 | F4 FG AE | FE FG E4 | D2 z A d>d c>B | cAcd e2 e2 | z4 z2 z A | %7
w: Al- ma Re- * dem- *|pto- * ris * Ma- * *|ter, Re- * dem- *|pto- * ris * Ma-|ter, quae per via cae- li|por- ta, por- ta ma- nes,|et|
 ^GA/B/ c/d/c/B/ AB/c/ dc/d/ | Bc/d/ e/f/e/d/ cd/e/ fe/f/ | dc B2 A2 z c | f>f e>d ece^f | %11
w: stel- * * * * * * * * * * * *||* la ma- ris, quae|per via cae- li por- ta, por- ta|
 g2 g2 z2 z g | ed/e/ cf/e/ dc/d/ Bc/d/ | ee d2 c4 | z8 | z8 | e2 A2 Bc dB | cB cd B4 | %18
w: ma- nes, et|stel- * * * * * * * * * * *|* la ma- ris.|||Al- ma Re- * dem- *|pto- * ris * Ma-|
 A2 z c c2 cF | Ec/B/ AG/F/ GC z2 | EF/G/ AG/A/ F>F F2 | z2 z F EFFE | F4 z4 | z2 z A A2 AD | %24
w: ter, suc- cur- re ca-|den- * * * * * * ti|sur- ge- re, sur- ge- re, sur- ge- re|qui cu- rat po- pu-|lo,|suc- cur- re ca-|
 ^CC z2 FG/A/ _BA/B/ | G>G GF EF E>E | D4 FG/A/ _BA/B/ | G>F E2 A_B/c/ dc/d/ | _B>B BA GA G>G | %29
w: den- ti sur- ge- re, sur- ge- re,|sur- ge- re qui cur- rat po- pu-|lo, sur- ge- re, sur- ge- re,|sur- ge- re, sur- ge- re, sur- ge- re,|sur- ge- re qui cur- rat po- pu-|
 F4 G4 | z GFG E2 Cc | c2 BB c2 c2 | z2 GF EEcc | _BBBB A4 | G4 z4 | z4 A4 | z AGA F2 Dd | %37
w: lo. Tu,|quae ge- nu- i- sti, na-|tu- ra mi- ran- te,|tu- um sanc- tum, tu- um|sanc- tum Ge- ni- to-|rem,|tu,|quae ge- nu- i- ste, na-|
 d2 ^cc dd^F^G | AAAA A2 ^G2 | A4 z4 | z8 | z8 | z8 | z8 | z2 ff feee | e>d d2 z2 de | %46
w: tu- ra mi- ran- te, tu- um|sanc- tum Ge- ni- to- *|rem,|||||vir- go pri- us ac pos-|te- ri- us, Ga- bri-|
 c2 cc B2 B2 | eeee AAdd | dcde c3 B | A4 z2 de | f2 f2 z2 Ac | _B4 A4 | z4 z2 cc | c_BBB B>A A2 | %54
w: e- lis ab o- re|su- mens il- lud a- ve, pec- ca-|to- rum mi- se- re- *|re, mi- se-|re- re, mi- se-|re- re,|vir- go|pri- us ac pos- te- ri- us,|
 z2 GA F2 FF | E2 E2 AAAA | DDde ^ccdd | d2 ^c2 d2 df | ecde ^c>B A2 | AAAA DDde | ^ccdd d2 c2 | %61
w: Ga- bri- e- lis ab|o- re su- mens il- lud|a- ve, peca- to- rum mi- s- e-|re- * re, mi- se-|re- re, mi- se- re- re, *|su- mens il- lud a- ve, pec- ca|to- rum mi- se- re- *|
 d2 dd d2 ^c2 | d8 |] %63
w: re, mi- se- re- *|re.|
V:2
 z8 | z8 | A2 D2 de f^c | d^c de d2 c2 | d4 z4 | z4 z2 z A | d>d c>B cAcd | e2 e2 z2 z B | %8
w: ||Al- ma Re- * dem- *|pto- * ris * Ma- *|ter,|quae|per via cae- li por- ta, por- ta|ma- nes, et|
 ^GA/B/ c/d/c/B/ AB/c/ dc/d/ | BA A^G A4 | z2 z G c>c B>A | BGB^c d2 d2 | z2 z d BA/B/ GA/B/ | %13
w: stel- * * * * * * * * * * * *|* la ma- * ris,|quae per via cae- li|por- ta, por- ta ma- nes,|et stel- * * * * *|
 cc cB c4 | e2 A2 Bc dB | cB A^G A4 | ^G2 z2 GA BG | A^G AB A2 G2 | A4 z4 | z2 z c c2 cF | %20
w: * la ma- * ris.|Al- ma Re- * dem- *|pto- * ris * Ma-|ter, Re- * dem- *|pto- * ris * Ma- *|ter,|suc- cur- re ca-|
 EE z2 A_B/c/ dc/d/ | _B>B BA GA G>G | F2 z A A2 AD | ^CA/G/ FE/D/ EA, z2 | ^CD/E/ FE/F/ D>D D2 | %25
w: den- ti sur- ge- re, sur- ge- re,|sur- ge- re qui cu- rat po- pu-|lo, suc- cur- re ca-|den- * * * * * * ti|sur- ge- re, sur- ge- re, sur- ge- re|
 z2 z D ^CDDC | D4 z4 | EF/G/ AG/A/ F>E D2 | z2 z F EFFE | F4 z4 | z4 G4 | z GFG E2 Cc | %32
w: qui cur- rat po- pu-|lo,|sur- ge- re, sur- ge- re, sur- ge- re,|qui cur- rat po- pu-|lo.|Tu,|quae ge- nu- i- sti, na-|
 c2 BB ccE^F | GGGG G2 ^F2 | G4 A4 | z AGA F2 Dd | d2 ^cc d2 d2 | z2 AG FFdd | cccc B4 | %39
w: tu- ra mi- ran- te, tu- um|sanc- tum Ge- ni- to- *|rem, tu,|quae ge- nu- i- ste, na-|tu- ra mi- ran- te,|tu- um sanc- tum, tu- um|sanc- tum Ge- ni- to-|
 A2 cc c_BBB | _B>A A2 z2 GA | F2 FF E2 E2 | AAAA DDGG | GFGA F3 E | D4 z4 | z8 | z8 | z8 | z8 | %49
w: rem, vir- go pri- us ac pos-|te- ri- us, Ga- bri-|e- lis ab o- re|su- mens il- lud a- ve, pec- ca-|to- rum mi- se- re- *|re,|||||
 z2 Ac _B4 | A2 AA DEFF | F2 E2 F2 cc | c_BBB B>A A2 | z2 GG G>F F2 | z2 EE D2 DD | ^C2 C2 FFFF | %56
w: mi- se- re-|re, peca- to- rum mi- s- e-|re- * re, vir- go|pri- us ac pos- te- ri- us,|ac pos- te- ri- us,|Ga- bri- e- lis ab|o- re su- mens il- lud|
 FFGG GGFF | E4 D2 _B2- | BA AG A4 | FFFF FFGG | GGFF E4 | D2 FF E4 | D8 |] %63
w: a- ve, peca- to- rum mi- s- e-|re- re, mi-|* se- re- * re,|su- mens il- lud a- ve, pec- ca|to- rum mi- se- re-|re, mi- se- re-|re.|
V:3
 D,3 C, _B,,2 A,,2 | _B,,2 ^F,,2 G,,2 B,,C, | D,3 C, _B,,2 A,,2 | D,2 _B,,2 G,,2 A,,2 | %4
w: |||* * 6t *|
 D,3 C, B,,2 E,2 | A,2 F,2 E,2 C,2 | D,2 E,2 A,2 F,2 | E,2 C,2 F,2 D,2 | E,2 C,2 F,2 D,2- | %9
w: * * 7 *|* * * 6||# * * *|# * * *|
 D,A,, E,,2 A,,2 A,G, | F,2 G,2 E,2 A,2 | G,2 E,2 D,2 B,,2 | C,2 F,2 G,3 F, | E,C, G,,2 C,C B,A, | %14
w: |5 * * *|||6 * * * * * *|
 ^G,2 A,2 A,2 G,2 | A,2 E,2 F,3 F, | E,2 C,2 B,,2 E,,2 | A,,2 F,2 D,2 E,2 | A,,2 F,2 E,2 D,2 | %19
w: * * 2 *||# * # 6 *|* * 5 *||
 C,2 F,2 E,2 D,2 | C,2 A,,2 D,C, _B,,A,, | G,,3 F,, C,A,, _B,,C, | F,2 D,2 C,2 _B,,2 | %23
w: ||! 6 * 6 6t *|* * 6 *|
 A,,2 D,2 C,2 _B,,2 | A,,2 F,,2 _B,A, G,F, | E,3 D, A,F, G,A, | D,E, D,C, _B,,A,, G,,F,, | %27
w: |# * * * * *|* * # 6 5 *||
 C,3 C, D,C, _B,,A,, | G,,3 F,, C,A,, _B,,C, | F,,F, E,D, C,D, E,F, | G,A, B,G, CC, E,F, | %31
w: ||||
 G,2 G,,2 C,2 A,,2 | F,,2 G,,2 C,2 A,,2 | G,,A,, _B,,C, D,C, D,D,, | G,,G, F,E, D,E, F,G, | %35
w: |5 * * *|* * * * 4 3 * *|! * * * * * * *|
 A,B, ^CA, DD, F,G, | A,2 A,,2 D,2 _B,,2 | G,,2 A,,2 D,2 B,,2 | A,,B,, C,D, E,D, E,E,, | %39
w: |4 * * *|5 * * *|* * * * 4 * # 3 *|
 A,,3 F, G,3 E, | F,3 D, E,3 ^C, | D,E, F,G, A,A, A,A, | D,3 C, _B,,3 G,, | A,,2 G,,2 A,,4 | %44
w: ||||# * *|
 D,3 B,, C,3 A,, | B,,2 B,A, ^G,^F, G,E, | A,B, CD EE EE | A,3 G, F,3 D, | E,2 D,2 E,2 E,,2 | %49
w: ! * * *|* * * * * 5 *|||#u 7 4 3|
 A,,2 A,2 G,2 G,,2 | F,,2 F,2 _B,,2 F,,2 | _B,,2 C,2 F,,2 F,2 | G,3 E, F,3 C, | D,3 E, F,3 E,/D,/ | %54
w: * * ! 7 6|* * 6t 7||* * * 6||
 ^C,B,,C,A,, D,E, F,G, | A,A, A,A, D,3 C, | _B,,3 G,, A,,2 G,,2 | A,,G,, A,,2 D,,3 D, | %58
w: * * 5 7 * * * *||* * #u 7|5 * * * *|
 C,2 _B,,2 A,,A,, A,,A,, | D,,2 D,C, _B,,3 G,, | A,,2 G,,2 A,,G,, A,,2 | D,2 F,,G,, A,,G,, A,,2 | %62
w: ||#u 7 4 3 *|* * * 4 3 *|
 D,8 |] %63
w: |

